svg/u1f9b5_1f3fb.svg

<svg viewBox="0 0 128 128" xmlns="http://www.w3.org/2000/svg">
  <linearGradient id="a" gradientUnits="userSpaceOnUse" x1="117.29" x2="33.833" y1="19.903" y2="83.278">
    <stop offset="0" stop-color="#FFD29C"/>
    <stop offset=".0237" stop-color="#FFD39E"/>
    <stop offset=".3158" stop-color="#FCD8AF"/>
    <stop offset=".6295" stop-color="#FADCBA"/>
    <stop offset="1" stop-color="#F9DDBD"/>
  </linearGradient>
  <path d="m20.27 122.41c-1.11 0-2.16-0.34-3.2-1.05-0.73-0.5-1.16-1.2-1.21-1.98-0.08-1.28 0.87-2.19 1.06-2.36 0.08-0.07 0.16-0.13 0.25-0.18 0 0 4.45-2.58 5.6-3.23 0.86-0.49 2.53-1.78 4.47-3.26 2.47-1.9 5.55-4.26 8.53-6.21 3.5-2.29 4.91-3.98 6.31-7.54 0.88-2.23 0.18-12.29-0.5-22.03-0.74-10.7-1.58-22.81-0.86-30.16-0.16-1.12-0.34-2.16-0.51-3.15-0.84-4.83-1.5-8.64 1.36-13.44 1.03-1.73 2.54-3.06 4.36-3.84 15.63-6.71 42.78-16.14 50.2-16.95 2.17-0.24 4.08-0.35 5.82-0.35 6.54 0 15.51 1.45 17.83 14.02 0.52 2.79 1.27 9.91-2.85 15.7-2.6 3.66-6.55 5.91-11.74 6.7-5.36 1.15-15.66 1.65-25.61 2.14-5.2 0.25-10.15 0.5-13.92 0.82 6.48 14.6 0.27 26.75-3.9 34.91l-0.48 0.95c-2.21 4.34-4.64 14.03-3.13 21.96 0.07 0.38 0.18 0.82 0.29 1.3 0.79 3.38 2.27 9.67-3.25 12.08-1.85 0.8-3.48 1.15-5.46 1.15-0.78 0-1.56-0.05-2.39-0.1-0.54-0.04-1.11-0.07-1.73-0.1-0.78-0.03-1.47-0.09-2.11-0.14-0.73-0.06-1.36-0.11-1.96-0.11-0.95 0-2.06 0.11-3.77 0.93-0.56 0.27-1.08 0.53-1.57 0.79-1.53 0.79-2.98 1.54-5.01 1.9-0.3 0.05-0.62 0.08-0.95 0.08-1.67 0-3.4-0.69-4.54-1.25-0.52 0.55-1.29 1.11-2.4 1.43l-0.39 0.11c-0.82 0.21-1.68 0.46-2.64 0.46z" fill="url(#a)"/>
  <path d="m101.95 8.18c8.46 0 14.52 2.88 16.35 12.79 1.4 7.59-0.54 18.69-13.34 20.65-8.79 1.88-31.57 2.06-41.58 3.16 7.92 15.35 0.94 27.84-3.44 36.46-2.19 4.3-4.91 14.28-3.26 22.92 0.57 2.97 2.97 9.52-2.09 11.72-1.87 0.81-3.34 1.02-4.86 1.02-1.24 0-2.51-0.14-4.06-0.2-1.66-0.07-2.91-0.26-4.14-0.26-1.33 0-2.64 0.22-4.42 1.07-2.31 1.1-3.78 2.13-6.19 2.56-0.22 0.04-0.45 0.06-0.68 0.06-2.3 0-4.99-1.72-4.99-1.72s-0.54 1.44-2.35 1.95c-0.93 0.26-1.76 0.55-2.63 0.55-0.73 0-1.49-0.2-2.35-0.79-1.26-0.86 0-1.98 0-1.98s4.45-2.57 5.59-3.23c2.1-1.2 7.73-6.03 13.08-9.52 3.75-2.45 5.37-4.38 6.89-8.24 2.01-5.13-2.7-38.47-1.25-52.77-0.91-6.48-2.53-10.48 0.62-15.79 0.85-1.43 2.13-2.57 3.67-3.23 16.54-7.11 42.88-16.08 49.78-16.84 1.98-0.21 3.87-0.34 5.65-0.34m0-3c-1.8 0-3.75 0.12-5.98 0.36-7.74 0.85-34.77 10.24-50.64 17.06-2.12 0.91-3.86 2.45-5.06 4.45-3.14 5.28-2.4 9.54-1.55 14.47 0.16 0.94 0.33 1.91 0.48 2.93-0.7 7.5 0.14 19.56 0.88 30.23 0.57 8.17 1.34 19.37 0.6 21.38-1.28 3.25-2.51 4.72-5.73 6.83-3.03 1.98-6.13 4.36-8.62 6.27-1.82 1.4-3.53 2.71-4.3 3.15-1.15 0.66-5.61 3.24-5.61 3.24-0.17 0.1-0.34 0.22-0.49 0.35-0.4 0.35-1.68 1.66-1.56 3.58 0.08 1.25 0.74 2.36 1.87 3.12 1.3 0.88 2.62 1.31 4.04 1.31 1.17 0 2.18-0.29 3.07-0.55l0.38-0.11c0.87-0.25 1.62-0.64 2.24-1.1 1.21 0.51 2.75 0.99 4.29 0.99 0.41 0 0.82-0.03 1.21-0.1 2.25-0.4 3.87-1.23 5.43-2.04 0.48-0.25 0.97-0.5 1.52-0.77 1.36-0.65 2.23-0.78 3.13-0.78 0.54 0 1.14 0.05 1.84 0.11 0.64 0.05 1.35 0.11 2.17 0.15 0.6 0.02 1.16 0.06 1.69 0.1 0.85 0.06 1.66 0.11 2.49 0.11 2.17 0 4.04-0.39 6.06-1.27 6.68-2.91 4.88-10.54 4.11-13.8-0.11-0.46-0.21-0.88-0.28-1.24-1.44-7.58 0.88-16.84 2.99-20.99l0.48-0.95c4.12-8.06 10.17-19.89 4.73-34.25 3.41-0.24 7.53-0.45 11.82-0.66 9.96-0.49 20.27-0.99 25.85-2.17 5.56-0.87 9.82-3.33 12.65-7.3 4.45-6.26 3.65-13.86 3.1-16.84-1.89-10.28-8.2-15.27-19.3-15.27z" fill="#EDBD82"/>
  <path d="m58.75 47.73c-0.73 2.29-1.39 4.48-1.95 6.67-0.54 2.19-1.02 4.35-1.25 6.54-0.32 2.18-0.46 4.37-0.47 6.59-0.07 2.25 0.16 4.47 0.18 6.9v0.03c0 0.05-0.04 0.1-0.11 0.1-0.04 0-0.09-0.03-0.1-0.07-0.77-2.23-1.44-4.48-1.67-6.8-0.33-2.31-0.27-4.65 0-6.97 0.31-2.31 0.92-4.6 1.78-6.79 0.86-2.2 1.97-4.33 3.4-6.3 0.03-0.05 0.1-0.06 0.14-0.03 0.04 0.02 0.05 0.07 0.04 0.11l0.01 0.02z" fill="#EDBD82"/>
  <path d="m52.65 102.09c0.41 0.93 0.88 2.69-0.01 4.44-1.43 2.11-3.23 2.4-4.16 2.37-0.28-0.01-0.43-0.3-0.26-0.51 0.51-0.61 1.46-1.83 2.26-3.21 0.72-1.24 1.24-2.4 1.52-3.1 0.13-0.27 0.54-0.26 0.65 0.01z" fill="#EDBD82"/>
  <path d="m48.99 40.03c1.5-1.37 2.79-4.11 3.07-4.95 0.27-0.84 1.02-4.1 0.84-5.86l-0.02-0.09c-0.01-0.06 0.03-0.12 0.1-0.12 0.03-0.01 0.06 0 0.08 0.02 1.1 0.75 1.67 1.97 1.85 3.15 0.2 1.2 0.08 2.43-0.27 3.59-0.38 1.15-1.04 2.26-2.01 3.12-0.95 0.87-2.29 1.39-3.63 1.4-0.06 0-0.12-0.05-0.12-0.11 0-0.03 0.02-0.07 0.04-0.09l0.07-0.06z" fill="#EDBD82"/>
</svg>

<svg viewBox="0 0 128 128" xmlns="http://www.w3.org/2000/svg">
  <defs>
    <linearGradient id="a" gradientUnits="userSpaceOnUse" x1="117.29" x2="33.833" y1="19.903" y2="83.278">
      <stop offset="0" stop-color="#FFD29C"/>
      <stop offset=".0237" stop-color="#FFD39E"/>
      <stop offset=".3158" stop-color="#FCD8AF"/>
      <stop offset=".6295" stop-color="#FADCBA"/>
      <stop offset="1" stop-color="#F9DDBD"/>
    </linearGradient>
  </defs>
  <path d="M20.27,122.41 C19.16,122.41 18.11,122.07 17.07,121.36 C16.34,120.86 15.91,120.16 15.86,119.38 C15.78,118.1 16.73,117.19 16.92,117.02 C17,116.95 17.08,116.89 17.17,116.84 C17.17,116.84 21.62,114.26 22.77,113.61 C23.63,113.12 25.3,111.83 27.24,110.35 C29.71,108.45 32.79,106.09 35.77,104.14 C39.27,101.85 40.68,100.16 42.08,96.6 C42.96,94.37 42.26,84.31 41.58,74.57 C40.84,63.87 40,51.76 40.72,44.41 C40.56,43.29 40.38,42.25 40.21,41.26 C39.37,36.43 38.71,32.62 41.57,27.82 C42.6,26.09 44.11,24.76 45.93,23.98 C61.56,17.27 88.71,7.84 96.13,7.03 C98.3,6.79 100.21,6.68 101.95,6.68 C108.49,6.68 117.46,8.13 119.78,20.7 C120.3,23.49 121.05,30.61 116.93,36.4 C114.33,40.06 110.38,42.31 105.19,43.1 C99.83,44.25 89.53,44.75 79.58,45.24 C74.38,45.49 69.43,45.74 65.66,46.06 C72.14,60.66 65.93,72.81 61.76,80.97 L61.28,81.92 C59.07,86.26 56.64,95.95 58.15,103.88 C58.22,104.26 58.33,104.7 58.44,105.18 C59.23,108.56 60.71,114.85 55.19,117.26 C53.34,118.06 51.71,118.41 49.73,118.41 C48.95,118.41 48.17,118.36 47.34,118.31 C46.8,118.27 46.23,118.24 45.61,118.21 C44.83,118.18 44.14,118.12 43.5,118.07 C42.77,118.01 42.14,117.96 41.54,117.96 C40.59,117.96 39.48,118.07 37.77,118.89 C37.21,119.16 36.69,119.42 36.2,119.68 C34.67,120.47 33.22,121.22 31.19,121.58 C30.89,121.63 30.57,121.66 30.24,121.66 C28.57,121.66 26.84,120.97 25.7,120.41 C25.18,120.96 24.41,121.52 23.3,121.84 L22.91,121.95 C22.09,122.16 21.23,122.41 20.27,122.41 Z" fill="url(#a)"/>
  <path d="M101.95,8.18 C110.41,8.18 116.47,11.06 118.3,20.97 C119.7,28.56 117.76,39.66 104.96,41.62 C96.17,43.5 73.39,43.68 63.38,44.78 C71.3,60.13 64.32,72.62 59.94,81.24 C57.75,85.54 55.03,95.52 56.68,104.16 C57.25,107.13 59.65,113.68 54.59,115.88 C52.72,116.69 51.25,116.9 49.73,116.9 C48.49,116.9 47.22,116.76 45.67,116.7 C44.01,116.63 42.76,116.44 41.53,116.44 C40.2,116.44 38.89,116.66 37.11,117.51 C34.8,118.61 33.33,119.64 30.92,120.07 C30.7,120.11 30.47,120.13 30.24,120.13 C27.94,120.13 25.25,118.41 25.25,118.41 C25.25,118.41 24.71,119.85 22.9,120.36 C21.97,120.62 21.14,120.91 20.27,120.91 C19.54,120.91 18.78,120.71 17.92,120.12 C16.66,119.26 17.92,118.14 17.92,118.14 C17.92,118.14 22.37,115.57 23.51,114.91 C25.61,113.71 31.24,108.88 36.59,105.39 C40.34,102.94 41.96,101.01 43.48,97.15 C45.49,92.02 40.78,58.68 42.23,44.38 C41.32,37.9 39.7,33.9 42.85,28.59 C43.7,27.16 44.98,26.02 46.52,25.36 C63.06,18.25 89.4,9.28 96.3,8.52 C98.28,8.31 100.17,8.18 101.95,8.18 M101.95,5.18 C100.15,5.18 98.2,5.3 95.97,5.54 C88.23,6.39 61.2,15.78 45.33,22.6 C43.21,23.51 41.47,25.05 40.27,27.05 C37.13,32.33 37.87,36.59 38.72,41.52 C38.88,42.46 39.05,43.43 39.2,44.45 C38.5,51.95 39.34,64.01 40.08,74.68 C40.65,82.85 41.42,94.05 40.68,96.06 C39.4,99.31 38.17,100.78 34.95,102.89 C31.92,104.87 28.82,107.25 26.33,109.16 C24.51,110.56 22.8,111.87 22.03,112.31 C20.88,112.97 16.42,115.55 16.42,115.55 C16.25,115.65 16.08,115.77 15.93,115.9 C15.53,116.25 14.25,117.56 14.37,119.48 C14.45,120.73 15.11,121.84 16.24,122.6 C17.54,123.48 18.86,123.91 20.28,123.91 C21.45,123.91 22.46,123.62 23.35,123.36 L23.73,123.25 C24.6,123 25.35,122.61 25.97,122.15 C27.18,122.66 28.72,123.14 30.26,123.14 C30.67,123.14 31.08,123.11 31.47,123.04 C33.72,122.64 35.34,121.81 36.9,121 C37.38,120.75 37.87,120.5 38.42,120.23 C39.78,119.58 40.65,119.45 41.55,119.45 C42.09,119.45 42.69,119.5 43.39,119.56 C44.03,119.61 44.74,119.67 45.56,119.71 C46.16,119.73 46.72,119.77 47.25,119.81 C48.1,119.87 48.91,119.92 49.74,119.92 C51.91,119.92 53.78,119.53 55.8,118.65 C62.48,115.74 60.68,108.11 59.91,104.85 C59.8,104.39 59.7,103.97 59.63,103.61 C58.19,96.03 60.51,86.77 62.62,82.62 L63.1,81.67 C67.22,73.61 73.27,61.78 67.83,47.42 C71.24,47.18 75.36,46.97 79.65,46.76 C89.61,46.27 99.92,45.77 105.5,44.59 C111.06,43.72 115.32,41.26 118.15,37.29 C122.6,31.03 121.8,23.43 121.25,20.45 C119.36,10.17 113.05,5.18 101.95,5.18 Z" fill="#EDBD82"/>
  <path d="M58.75,47.73 C58.02,50.02 57.36,52.21 56.8,54.4 C56.26,56.59 55.78,58.75 55.55,60.94 C55.23,63.12 55.09,65.31 55.08,67.53 C55.01,69.78 55.24,72 55.26,74.43 L55.26,74.46 C55.26,74.51 55.22,74.56 55.15,74.56 C55.11,74.56 55.06,74.53 55.05,74.49 C54.28,72.26 53.61,70.01 53.38,67.69 C53.05,65.38 53.11,63.04 53.38,60.72 C53.69,58.41 54.3,56.12 55.16,53.93 C56.02,51.73 57.13,49.6 58.56,47.63 C58.59,47.58 58.66,47.57 58.7,47.6 C58.74,47.62 58.75,47.67 58.74,47.71 L58.75,47.73 Z" fill="#EDBD82"/>
  <path d="M52.65,102.09 C53.06,103.02 53.53,104.78 52.64,106.53 C51.21,108.64 49.41,108.93 48.48,108.9 C48.2,108.89 48.05,108.6 48.22,108.39 C48.73,107.78 49.68,106.56 50.48,105.18 C51.2,103.94 51.72,102.78 52,102.08 C52.13,101.81 52.54,101.82 52.65,102.09 Z" fill="#EDBD82"/>
  <path d="M48.99,40.03 C50.49,38.66 51.78,35.92 52.06,35.08 C52.33,34.24 53.08,30.98 52.9,29.22 L52.88,29.13 C52.87,29.07 52.91,29.01 52.98,29.01 C53.01,29 53.04,29.01 53.06,29.03 C54.16,29.78 54.73,31 54.91,32.18 C55.11,33.38 54.99,34.61 54.64,35.77 C54.26,36.92 53.6,38.03 52.63,38.89 C51.68,39.76 50.34,40.28 49,40.29 C48.94,40.29 48.88,40.24 48.88,40.18 C48.88,40.15 48.9,40.11 48.92,40.09 L48.99,40.03 Z" fill="#EDBD82"/>
</svg>
